X:0
L:1/4
M:4/4
K:C
%%begintext
%%endtext
"P"_B, "c"C "p"^C "p"D | "c"E "p"F "p"^F "➀"G | \
"p"^G "➁"A "➂"B "➃"c | "p"^c "➄"d "p"^d "➅"e | \
"p"=f "➆"^f "➇"g "p"^g | "c"a "p"b |
"P"^G, "c"_B, "p"B, "p"C | "c"D "p"^D "p"E "➀"F | \
"p"^G "➁"A "➂"B "➃"c | "p"^c "➄"d "p"^d "➅"e | \
"p"=f "➆"^f "➇"g "p"^g | "c"a "p"b |


